X: 57
T: Brightest and Best of the Sons of Morning
M: 4/4 % time signature
L: 1/4 % default length
%%staves (S1V1 S1V2) | (S2V1 S2V2) 
V: S1V1 clef=treble 
%%MIDI beat 127 125 110 1
V: S1V2 
%%MIDI beat 127 125 110 1
V: S2V1 clef=bass 
%%MIDI beat 127 125 110 1
V: S2V2 
%%MIDI beat 127 125 110 1
K: Ab % key signature
%
%%MIDI program 1 0 % Piano 1
%%MIDI program 2 0 % Piano 1
%%MIDI program 3 0 % Piano 1
%%MIDI program 4 0 % Piano 1
%
% 1
[V: S1V1] c2 B A | G2 F E | (EA) G A | c2 B2 | e2 d c | 
w: 1.~Bright- est and best of the sons * of the morn- ing, Dawn on our
w: 2.~Cold on his cra- dle the dew - drops are shin- ing, Low lies his
w: 3.~Shall we then yield him, in cost - ly de- vo- tion, O- dours of
[V: S1V2]  C2 C C | D2 D D | E2 =D D | E2 E2 | E2 E E | 
[V: S2V1]  E,2 E, E, | E,2 F, G, | A,2 A, A, | A,2 G,2 | A,2 G, A, | 
[V: S2V2]  A,,2 A,, A,, | B,,2 B,, B,, | C,2 F, F, | E,2 (E, D,) | C,2 B,, A,, | 
% 5
[V: S1V1]  c2 B A | (G B) A F | E4 || c2 B A | G2 F E | 
w: dark- ness, and lend * us thine aid; Star of the east, the ho-
w: head with the beasts * of the stall; An- gels a- dore him in
w: E- dom, and of - f'rings di- vine, Gems of the moun- tain, and
[V: S1V2]  E2 E E | E2 =D D | (E2 _D2) || C2 C C | D2 D D | 
[V: S2V1]  A,2 B, C | (B, G,) F, A, | G,4 || E,2 E, E, | E,2 F, G, | 
[V: S2V2]  A,2 G, F, | B,,2 B,, B,, | E,4 || A,,2 A,, A,, | B,,2 B,, B,, | 
% 9
[V: S1V1]  (E A) c e | e2 d2 | c2 A B | c2 A F | (E F) G B | A4 |] 
w: ri - zon a- dorn- ing, Guide where our in- fant Re- deem - er is laid.
w: slum - ber re- clin- ing, Ma- ker and Mon- arch and Sa - viour of all.
w: pearls * of the o- cean, Myrrh from the for- est, and gold * from the mine?
[V: S1V2] E2 A G | F2 F2 | E2 C F | =E2 C =B, | C2 D D | C4 ||
[V: S2V1] A,2 A, A, | A,2 A,2 | A,2 A, F, | G,2 A, A, | A,2 B, G, | A,4 |]
[V: S2V2] C,2 C, C, | D,2 D,2 | E,2 F, D, | C,2 F, =D, | E,2 E, E, | A,,4 |]
W: 4. Vainly we offer each ample oblation,
W: Vainly with gifts would his favour secure;
W: Richer by far is the heart's adoration,
W: Dearer to God are the prayers of the poor.
W: 
W: 5. Brightest and best of the sons of the morning,
W: Dawn on our darkness, and lend us thine aid;
W: Star of the east, the horizon adorning,
W: Guide where our infant Redeemer is laid.


